src/sharedassets/phone_light/record_call.svg

<?xml version="1.0" encoding="UTF-8" standalone="no"?>
<!-- Created with Inkscape (http://www.inkscape.org/) -->

<svg
   xmlns:dc="http://purl.org/dc/elements/1.1/"
   xmlns:cc="http://creativecommons.org/ns#"
   xmlns:rdf="http://www.w3.org/1999/02/22-rdf-syntax-ns#"
   xmlns:svg="http://www.w3.org/2000/svg"
   xmlns="http://www.w3.org/2000/svg"
   xmlns:xlink="http://www.w3.org/1999/xlink"
   xmlns:sodipodi="http://sodipodi.sourceforge.net/DTD/sodipodi-0.dtd"
   xmlns:inkscape="http://www.inkscape.org/namespaces/inkscape"
   width="24"
   height="24"
   id="svg2"
   sodipodi:version="0.32"
   inkscape:version="0.91 r13725"
   version="1.0"
   sodipodi:docname="rec_call.svg"
   inkscape:output_extension="org.inkscape.output.svg.inkscape"
   sodipodi:modified="true">
  <title
     id="title3001">rec_call.svg</title>
  <defs
     id="defs4">
    <linearGradient
       inkscape:collect="always"
       id="linearGradient2433">
      <stop
         style="stop-color:#008000;stop-opacity:1;"
         offset="0"
         id="stop2435" />
      <stop
         style="stop-color:#008000;stop-opacity:0;"
         offset="1"
         id="stop2437" />
    </linearGradient>
    <inkscape:perspective
       sodipodi:type="inkscape:persp3d"
       inkscape:vp_x="0 : 12 : 1"
       inkscape:vp_y="0 : 1000 : 0"
       inkscape:vp_z="24 : 12 : 1"
       inkscape:persp3d-origin="12 : 8 : 1"
       id="perspective32" />
    <linearGradient
       id="linearGradient4269">
      <stop
         style="stop-color:#26b000;stop-opacity:1;"
         offset="0"
         id="stop4271" />
      <stop
         style="stop-color:#26b000;stop-opacity:0;"
         offset="1"
         id="stop4273" />
    </linearGradient>
    <linearGradient
       id="linearGradient4183">
      <stop
         id="stop4185"
         offset="0"
         style="stop-color:#26b000;stop-opacity:1;" />
      <stop
         id="stop4187"
         offset="1"
         style="stop-color:#145f00;stop-opacity:1;" />
    </linearGradient>
    <linearGradient
       id="linearGradient4167">
      <stop
         style="stop-color:#80000e;stop-opacity:1;"
         offset="0"
         id="stop4169" />
      <stop
         style="stop-color:#b00014;stop-opacity:0;"
         offset="1"
         id="stop4171" />
    </linearGradient>
    <linearGradient
       inkscape:collect="always"
       xlink:href="#linearGradient2433"
       id="linearGradient2439"
       x1="2.965755"
       y1="-0.80084854"
       x2="32.578228"
       y2="16.739393"
       gradientUnits="userSpaceOnUse" />
  </defs>
  <sodipodi:namedview
     id="base"
     pagecolor="#ffffff"
     bordercolor="#666666"
     borderopacity="1.0"
     inkscape:pageopacity="0.0"
     inkscape:pageshadow="2"
     inkscape:zoom="22.627417"
     inkscape:cx="-10.542359"
     inkscape:cy="12.018537"
     inkscape:document-units="px"
     inkscape:current-layer="layer1"
     width="32px"
     height="32px"
     showguides="true"
     inkscape:guide-bbox="true"
     inkscape:window-width="1918"
     inkscape:window-height="1036"
     inkscape:window-x="0"
     inkscape:window-y="14"
     showgrid="false"
     inkscape:window-maximized="1" />
  <metadata
     id="metadata7">
    <rdf:RDF>
      <cc:Work
         rdf:about="">
        <dc:format>image/svg+xml</dc:format>
        <dc:type
           rdf:resource="http://purl.org/dc/dcmitype/StillImage" />
        <dc:title>rec_call.svg</dc:title>
        <dc:date>2014/01/04</dc:date>
        <dc:creator>
          <cc:Agent>
            <dc:title>Gabrielle Maheux-Leclerc &lt;gabrielle.maheux@savoirfairelinux.com&gt;</dc:title>
          </cc:Agent>
        </dc:creator>
        <dc:rights>
          <cc:Agent>
            <dc:title>Savoir-faire Linux Inc.</dc:title>
          </cc:Agent>
        </dc:rights>
        <dc:publisher>
          <cc:Agent>
            <dc:title>Savoir-faire Linux Inc.</dc:title>
          </cc:Agent>
        </dc:publisher>
        <dc:source>http://sflphone.org/download/source-code</dc:source>
        <dc:subject>
          <rdf:Bag>
            <rdf:li>gnome</rdf:li>
            <rdf:li>voip</rdf:li>
            <rdf:li>sip</rdf:li>
          </rdf:Bag>
        </dc:subject>
        <dc:coverage>SFLphone project</dc:coverage>
        <cc:license
           rdf:resource="http://creativecommons.org/licenses/by-sa/3.0/" />
      </cc:Work>
      <cc:License
         rdf:about="http://creativecommons.org/licenses/by-sa/3.0/">
        <cc:permits
           rdf:resource="http://creativecommons.org/ns#Reproduction" />
        <cc:permits
           rdf:resource="http://creativecommons.org/ns#Distribution" />
        <cc:requires
           rdf:resource="http://creativecommons.org/ns#Notice" />
        <cc:requires
           rdf:resource="http://creativecommons.org/ns#Attribution" />
        <cc:permits
           rdf:resource="http://creativecommons.org/ns#DerivativeWorks" />
        <cc:requires
           rdf:resource="http://creativecommons.org/ns#ShareAlike" />
      </cc:License>
    </rdf:RDF>
  </metadata>
  <g
     inkscape:label="Calque 1"
     inkscape:groupmode="layer"
     id="layer1">
    <rect
       style="color:#bebebe;fill:none;stroke:none;stroke-width:1;marker:none;visibility:visible;display:inline;overflow:visible"
       id="rect44095-0-2"
       width="27.25"
       height="27.25"
       x="-25.687498"
       y="-27.12499"
       inkscape:label="a"
       transform="scale(-1,-1)" />
    <rect
       style="color:#bebebe;fill:none;stroke:none;stroke-width:1;marker:none;visibility:visible;display:inline;overflow:visible"
       id="rect44095-0"
       width="27.357903"
       height="27.357903"
       x="-1.6802465"
       y="-4.3527112"
       inkscape:label="a" />
    <rect
       inkscape:label="a"
       y="-18.073694"
       x="-1.6802227"
       height="27.402094"
       width="27.402094"
       id="rect44122-0"
       style="color:#bebebe;fill:none;stroke:none;stroke-width:1;marker:none;visibility:visible;display:inline;overflow:visible" />
    <path
       inkscape:connector-curvature="0"
       style="fill:#f2f2f2;fill-opacity:1;stroke:none;display:inline;enable-background:new"
       d="M 8.043354,1.0992236 C 7.372235,1.1739056 6.754867,1.7746355 6.22085,2.162351 4.58382,3.4917909 3.864992,5.6624501 4.043969,7.7311139 4.255429,10.385652 5.32003,12.868341 6.62585,15.173007 6.901251,15.125217 7.197388,15.07176 7.486477,15.07176 c 2.716066,0 4.910637,2.194572 4.910637,4.910639 0,0.622438 -0.14337,1.223768 -0.354376,1.771879 0.605266,0.405309 1.273631,0.710858 1.97438,0.961877 1.972419,0.70185 4.217939,0.208836 5.872514,-1.012502 l 0.151795,-0.101246 0.05054,-0.151795 c 0.255962,-1.224999 -0.525691,-2.410711 -1.164378,-3.391883 -0.746142,-0.982713 -1.589548,-2.004351 -2.733757,-2.531258 -0.358166,-0.09704 -0.631072,0.33581 -0.961877,0.455626 -0.859962,0.559161 -2.081461,1.048321 -2.986881,0.303751 C 11.112111,15.275942 10.581333,13.789961 9.764446,12.540582 9.191531,11.552428 8.380541,10.243886 9.156944,9.1486983 9.741037,8.3386639 10.730276,8.0292432 11.4857,7.4780694 11.671093,6.4850879 11.31061,5.4891906 11.030074,4.5418126 10.553242,3.2963213 9.927823,1.9717251 8.751943,1.2511799 8.512685,1.1274116 8.266898,1.0744213 8.043192,1.0993856 z"
       id="path44084-2-0-3-8-3" />
    <path
       sodipodi:type="arc"
       style="fill:#de2c2c;fill-opacity:0.98431373;stroke:none"
       id="path12471-2"
       sodipodi:cx="83.928574"
       sodipodi:cy="507.45148"
       sodipodi:rx="2.0535715"
       sodipodi:ry="2.0535715"
       d="m 85.982145,507.45148 a 2.0535715,2.0535715 0 1 1 -4.107143,0 2.0535715,2.0535715 0 1 1 4.107143,0 z"
       transform="matrix(1.6200038,0,0,1.6200038,-128.49259,-802.01204)" />
  </g>
</svg>

<svg xmlns="http://www.w3.org/2000/svg" width="24" height="24" version="1"><path style="marker:none" color="#bebebe" fill="none" overflow="visible" d="M25.687 27.125h-27.25V-.125h27.25z"/><path style="marker:none" color="#bebebe" fill="none" overflow="visible" d="M-1.68-4.353h27.358v27.358H-1.68z"/><path style="marker:none" color="#bebebe" fill="none" overflow="visible" d="M-1.68-18.074h27.402V9.328H-1.68z"/><path d="M8.043 1.1c-.67.074-1.288.675-1.822 1.062-1.637 1.33-2.356 3.5-2.177 5.57.211 2.654 1.276 5.136 2.582 7.441.275-.048.571-.101.86-.101a4.906 4.906 0 0 1 4.911 4.91c0 .623-.143 1.224-.354 1.772.605.406 1.273.711 1.974.962 1.973.702 4.218.209 5.873-1.012l.151-.102.051-.151c.256-1.225-.526-2.411-1.164-3.392-.747-.983-1.59-2.005-2.734-2.532-.358-.097-.631.336-.962.456-.86.56-2.082 1.048-2.987.304-1.133-1.011-1.664-2.497-2.48-3.746-.573-.989-1.384-2.297-.608-3.392.584-.81 1.573-1.12 2.329-1.67.185-.994-.175-1.99-.456-2.937-.477-1.246-1.102-2.57-2.278-3.29a1.256 1.256 0 0 0-.709-.153z" fill="#f2f2f2"/><path d="M10.799 20.061a3.327 3.327 0 1 1-6.654 0 3.327 3.327 0 1 1 6.654 0z" fill="#de2c2c" fill-opacity=".984"/></svg>
